apps/scalable/zipper.svg

<svg xmlns="http://www.w3.org/2000/svg" style="isolation:isolate" width="256" height="256"><defs><filter id="a" width="270.648" height="254.338" x="-7.32" y="2.95" filterUnits="userSpaceOnUse"><feGaussianBlur xmlns="http://www.w3.org/2000/svg" in="SourceGraphic" stdDeviation="4.294"/><feOffset xmlns="http://www.w3.org/2000/svg" dy="4" result="pf_100_offsetBlur"/><feFlood xmlns="http://www.w3.org/2000/svg" flood-opacity=".4"/><feComposite xmlns="http://www.w3.org/2000/svg" in2="pf_100_offsetBlur" operator="in" result="pf_100_dropShadow"/><feBlend xmlns="http://www.w3.org/2000/svg" in="SourceGraphic" in2="pf_100_dropShadow"/></filter></defs><g filter="url(#a)"><linearGradient id="b" x1=".25" x2=".75" y1=".036" y2=".902" gradientTransform="matrix(244.648 0 0 228.338 5.676 11.947)" gradientUnits="userSpaceOnUse"><stop offset="0%" stop-color="#ddc62f"/><stop offset="100%" stop-color="#dddd74"/></linearGradient><path fill="url(#b)" d="M165.685 11.947c74.055 0 84.639 10.557 84.639 84.544v59.251c0 73.986-10.584 84.543-84.639 84.543h-75.37c-74.055 0-84.639-10.557-84.639-84.543V96.491c0-73.987 10.584-84.544 84.639-84.544h75.37z"/></g><path d="M128 11.935v8.155h8.155v-8.155H128zm0 8.155h-8.155v8.155H128V20.09zm0 8.155V36.4h8.155v-8.155H128zm0 8.155h-8.155v8.155H128V36.4zm0 8.155v8.155h8.155v-8.155H128zm0 8.155h-8.155v8.155H128V52.71zm0 8.155v8.155h8.155v-8.155H128zm0 8.155h-8.155v8.155H128V69.02zm0 8.155v8.155h8.155v-8.155H128zm0 8.155h-8.155v8.155H128V85.33zm0 8.155v8.155h8.155v-8.155H128zm0 8.155h-8.155v8.155H128v-8.155zm0 8.155v8.155h8.155v-8.155H128z" opacity=".1"/><defs><filter id="c" width="24.927" height="147.252" x="115.54" y="9.67" filterUnits="userSpaceOnUse"><feGaussianBlur xmlns="http://www.w3.org/2000/svg" stdDeviation="1.85"/></filter></defs><path d="M119.845 13.974v8.155H128v-8.155h-8.155zM128 22.129v8.155h8.155v-8.155H128zm0 8.155h-8.155v8.155H128v-8.155zm0 8.155v8.155h8.155v-8.155H128zm0 8.155h-8.155v8.155H128v-8.155zm0 8.155v8.155h8.155v-8.155H128zm0 8.155h-8.155v8.155H128v-8.155zm0 8.155v8.155h8.155v-8.155H128zm0 8.155h-8.155v8.155H128v-8.155zm0 8.155v8.155h8.155v-8.155H128zm0 8.155h-8.155v8.155H128v-8.155zm0 8.155v8.155h8.155v-8.155H128zm0 8.155h-8.155v38.736c0 1.129.909 2.038 2.039 2.038h12.232c1.13 0 2.039-.909 2.039-2.038v-30.581H128v-8.155zm-4.077 28.542h8.154v8.155h-8.154v-8.155z" opacity=".2" filter="url(#c)"/><path fill="#FAF8F6" d="M119.845 117.95v30.581c0 1.129.909 2.039 2.039 2.039h12.232c1.13 0 2.039-.91 2.039-2.039V117.95h-16.31zm4.078 20.387h8.154v8.155h-8.154v-8.155z"/><path fill="#F1F0E9" d="M128 11.935v8.155h-8.155v-8.155H128zm0 8.155h8.155v8.155H128V20.09zm0 8.155V36.4h-8.155v-8.155H128zm0 8.155h8.155v8.155H128V36.4zm0 8.155v8.155h-8.155v-8.155H128zm0 8.155h8.155v8.155H128V52.71zm0 8.155v8.155h-8.155v-8.155H128zm0 8.155h8.155v8.155H128V69.02zm0 8.155v8.155h-8.155v-8.155H128zm0 8.155h8.155v8.155H128V85.33zm0 8.155v8.155h-8.155v-8.155H128zm0 8.155h8.155v8.155H128v-8.155zm0 8.155v8.155h-8.155v-8.155H128z"/><g opacity=".4"><linearGradient id="d" x1=".517" x2=".517" y2="1"><stop offset="0%" stop-color="#fff"/><stop offset="12.5%" stop-opacity=".098" stop-color="#fff"/><stop offset="92.5%" stop-opacity=".098"/><stop offset="100%" stop-opacity=".498"/></linearGradient><path fill="none" stroke="url(#d)" stroke-linecap="round" stroke-linejoin="round" stroke-width="4.077" d="M165.685 11.947c74.055 0 84.639 10.557 84.639 84.544v59.251c0 73.986-10.584 84.543-84.639 84.543h-75.37c-74.055 0-84.639-10.557-84.639-84.543V96.491c0-73.987 10.584-84.544 84.639-84.544h75.37z" vector-effect="non-scaling-stroke"/></g><g opacity=".2"><path fill="#FFF" d="M128 11.947v228.338h37.685c74.055 0 84.639-10.557 84.639-84.543V96.491c0-73.987-10.584-84.544-84.639-84.544H128z"/></g></svg>

<svg xmlns="http://www.w3.org/2000/svg" style="isolation:isolate" width="256" height="256" viewBox="0 0 256 256">
 <defs>
  <filter id="2UhnTYWAIGUqREieO0fqGbkbR1FbWbwS" width="270.648" height="254.338" x="-7.32" y="2.95" filterUnits="userSpaceOnUse">
   <feGaussianBlur xmlns="http://www.w3.org/2000/svg" in="SourceGraphic" stdDeviation="4.294"/>
   <feOffset xmlns="http://www.w3.org/2000/svg" dx="0" dy="4" result="pf_100_offsetBlur"/>
   <feFlood xmlns="http://www.w3.org/2000/svg" flood-opacity=".4"/>
   <feComposite xmlns="http://www.w3.org/2000/svg" in2="pf_100_offsetBlur" operator="in" result="pf_100_dropShadow"/>
   <feBlend xmlns="http://www.w3.org/2000/svg" in="SourceGraphic" in2="pf_100_dropShadow" mode="normal"/>
  </filter>
 </defs>
 <g filter="url(#2UhnTYWAIGUqREieO0fqGbkbR1FbWbwS)">
  <linearGradient id="_lgradient_67" x1=".25" x2=".75" y1=".036" y2=".902" gradientTransform="matrix(244.648,0,0,228.338,5.676,11.947)" gradientUnits="userSpaceOnUse">
   <stop offset="0%" style="stop-color:rgb(221,198,47)"/>
   <stop offset="100%" style="stop-color:rgb(221,221,116)"/>
  </linearGradient>
  <path fill="url(#_lgradient_67)" d="M 165.685 11.947 C 239.74 11.947 250.324 22.504 250.324 96.491 L 250.324 155.742 C 250.324 229.728 239.74 240.285 165.685 240.285 L 90.315 240.285 C 16.26 240.285 5.676 229.728 5.676 155.742 L 5.676 96.491 C 5.676 22.504 16.26 11.947 90.315 11.947 L 165.685 11.947 Z"/>
 </g>
 <g>
  <g>
   <g opacity=".1">
    <path d="M 128 11.935 L 128 20.09 L 136.155 20.09 L 136.155 11.935 L 128 11.935 Z M 128 20.09 L 119.845 20.09 L 119.845 28.245 L 128 28.245 L 128 20.09 Z M 128 28.245 L 128 36.4 L 136.155 36.4 L 136.155 28.245 L 128 28.245 Z M 128 36.4 L 119.845 36.4 L 119.845 44.555 L 128 44.555 L 128 36.4 Z M 128 44.555 L 128 52.71 L 136.155 52.71 L 136.155 44.555 L 128 44.555 Z M 128 52.71 L 119.845 52.71 L 119.845 60.865 L 128 60.865 L 128 52.71 Z M 128 60.865 L 128 69.02 L 136.155 69.02 L 136.155 60.865 L 128 60.865 Z M 128 69.02 L 119.845 69.02 L 119.845 77.175 L 128 77.175 L 128 69.02 Z M 128 77.175 L 128 85.33 L 136.155 85.33 L 136.155 77.175 L 128 77.175 Z M 128 85.33 L 119.845 85.33 L 119.845 93.485 L 128 93.485 L 128 85.33 Z M 128 93.485 L 128 101.64 L 136.155 101.64 L 136.155 93.485 L 128 93.485 Z M 128 101.64 L 119.845 101.64 L 119.845 109.795 L 128 109.795 L 128 101.64 Z M 128 109.795 L 128 117.95 L 136.155 117.95 L 136.155 109.795 L 128 109.795 Z"/>
   </g>
   <defs>
    <filter id="miplFPSBM8pcIaIE1XeoqkhQ0SMpo4Q5" width="24.927" height="147.252" x="115.54" y="9.67" filterUnits="userSpaceOnUse">
     <feGaussianBlur xmlns="http://www.w3.org/2000/svg" stdDeviation="1.85"/>
    </filter>
   </defs>
   <g opacity=".2" filter="url(#miplFPSBM8pcIaIE1XeoqkhQ0SMpo4Q5)">
    <path d="M 119.845 13.974 L 119.845 22.129 L 128 22.129 L 128 13.974 L 119.845 13.974 Z M 128 22.129 L 128 30.284 L 136.155 30.284 L 136.155 22.129 L 128 22.129 Z M 128 30.284 L 119.845 30.284 L 119.845 38.439 L 128 38.439 L 128 30.284 Z M 128 38.439 L 128 46.594 L 136.155 46.594 L 136.155 38.439 L 128 38.439 Z M 128 46.594 L 119.845 46.594 L 119.845 54.749 L 128 54.749 L 128 46.594 Z M 128 54.749 L 128 62.904 L 136.155 62.904 L 136.155 54.749 L 128 54.749 Z M 128 62.904 L 119.845 62.904 L 119.845 71.059 L 128 71.059 L 128 62.904 Z M 128 71.059 L 128 79.214 L 136.155 79.214 L 136.155 71.059 L 128 71.059 Z M 128 79.214 L 119.845 79.214 L 119.845 87.369 L 128 87.369 L 128 79.214 Z M 128 87.369 L 128 95.524 L 136.155 95.524 L 136.155 87.369 L 128 87.369 Z M 128 95.524 L 119.845 95.524 L 119.845 103.679 L 128 103.679 L 128 95.524 Z M 128 103.679 L 128 111.834 L 136.155 111.834 L 136.155 103.679 L 128 103.679 Z M 128 111.834 L 119.845 111.834 L 119.845 119.989 L 119.845 150.57 C 119.845 151.699 120.754 152.608 121.884 152.608 L 134.116 152.608 C 135.246 152.608 136.155 151.699 136.155 150.57 L 136.155 119.989 L 128 119.989 L 128 111.834 Z M 123.923 140.376 L 132.077 140.376 L 132.077 148.531 L 123.923 148.531 L 123.923 140.376 Z"/>
   </g>
   <path fill="#FAF8F6" d="M 119.845 117.95 L 119.845 148.531 C 119.845 149.66 120.754 150.57 121.884 150.57 L 134.116 150.57 C 135.246 150.57 136.155 149.66 136.155 148.531 L 136.155 117.95 L 119.845 117.95 Z M 123.923 138.337 L 132.077 138.337 L 132.077 146.492 L 123.923 146.492 L 123.923 138.337 Z"/>
   <path fill="#F1F0E9" d="M 128 11.935 L 128 20.09 L 119.845 20.09 L 119.845 11.935 L 128 11.935 Z M 128 20.09 L 136.155 20.09 L 136.155 28.245 L 128 28.245 L 128 20.09 Z M 128 28.245 L 128 36.4 L 119.845 36.4 L 119.845 28.245 L 128 28.245 Z M 128 36.4 L 136.155 36.4 L 136.155 44.555 L 128 44.555 L 128 36.4 Z M 128 44.555 L 128 52.71 L 119.845 52.71 L 119.845 44.555 L 128 44.555 Z M 128 52.71 L 136.155 52.71 L 136.155 60.865 L 128 60.865 L 128 52.71 Z M 128 60.865 L 128 69.02 L 119.845 69.02 L 119.845 60.865 L 128 60.865 Z M 128 69.02 L 136.155 69.02 L 136.155 77.175 L 128 77.175 L 128 69.02 Z M 128 77.175 L 128 85.33 L 119.845 85.33 L 119.845 77.175 L 128 77.175 Z M 128 85.33 L 136.155 85.33 L 136.155 93.485 L 128 93.485 L 128 85.33 Z M 128 93.485 L 128 101.64 L 119.845 101.64 L 119.845 93.485 L 128 93.485 Z M 128 101.64 L 136.155 101.64 L 136.155 109.795 L 128 109.795 L 128 101.64 Z M 128 109.795 L 128 117.95 L 119.845 117.95 L 119.845 109.795 L 128 109.795 Z"/>
  </g>
 </g>
 <g opacity=".4">
  <linearGradient id="_lgradient_68" x1=".517" x2=".517" y1="0" y2="1">
   <stop offset="0%" style="stop-color:rgb(255,255,255)"/>
   <stop offset="12.5%" stop-opacity=".098" style="stop-color:rgb(255,255,255)"/>
   <stop offset="92.5%" stop-opacity=".098" style="stop-color:rgb(0,0,0)"/>
   <stop offset="100%" stop-opacity=".498" style="stop-color:rgb(0,0,0)"/>
  </linearGradient>
  <path fill="none" stroke="url(#_lgradient_68)" stroke-linecap="round" stroke-linejoin="round" stroke-width="4.077" d="M 165.685 11.947 C 239.74 11.947 250.324 22.504 250.324 96.491 L 250.324 155.742 C 250.324 229.728 239.74 240.285 165.685 240.285 L 90.315 240.285 C 16.26 240.285 5.676 229.728 5.676 155.742 L 5.676 96.491 C 5.676 22.504 16.26 11.947 90.315 11.947 L 165.685 11.947 Z" vector-effect="non-scaling-stroke"/>
 </g>
 <g opacity=".2">
  <path fill="#FFFFFF" d="M 128 11.947 L 128 240.285 L 165.685 240.285 C 239.74 240.285 250.324 229.728 250.324 155.742 L 250.324 96.491 C 250.324 22.504 239.74 11.947 165.685 11.947 L 128 11.947 Z"/>
 </g>
</svg>
